FINK
CUT[WAS IST DOCH AUF DIESER WELT]
REG[Europa, Mitteleuropa, Deutschland]
KEY[F0639  08  A 4/4]
MEL[  -5_-6-4-5_-6-4  -5_-6-71_0_
    3_.11_.-5  -5_.-4-3_0_
    -5_-6_-7_1_  2_3_2-7-5_
    -7_1_2_3_  4_3_3_2_
    -5_-5_4_.3  2_.1-7_-5_
    -5_.43_.5  542-71_0_
    -5_-5_4_.3  2_.1-7_-5_
    -5_.43_.5  542-71_0_ //] >>
FCT[Staende -, Jaeger - Lied]
